X:40
T:Suffolk
T:CM
S:John Moore's Book 3
Z:Transcribed by Edmund Spriggs 05/2021
%%VWML: Moore1-4495-p31-0
F:https://www.vwml.org/record/Moore3/4495/p31
N:Bar 17 in the first part should have triplet quavers in place of three semiquavers.
M:C|
L:1/4
V:1 clef=treble
V:2 clef=bass
K:G
[V:1]G2BA|GcBA|B4|d2BG|
[V:2]G,2G,D,|E,C,D,D,|G,,4|G,2G,E,|
[V:1](A/G/A/B/)cB|B2A2|"_p"B2"_p"cd|e2d2|
[V:2]C,3G,,|D,4|G,2A,B,|C2B,2|
[V:1](dc)(BG)|B2z1d|"_p"d>BB2|c/d/e/d/cB|B2A2|]
[V:2](B,A,)(G,F,)|G,2z1G,|D,2E,2|C,3^C,|D,4|]
[V:1]d2dd|dgfe|d4|B>dcA//B//c//|B2A2|G4|]
[V:2]G,2G,G,|B,G,A,A,|D,4|G,2C,C,|D,2D,2|G,,4|]

